X:1                          % number of the tune
T:Lady of Spain              % title
M:3/4                        % meter
C:Tolchard Evans             % composer
L:1/8                        % default note length
K:C
% abc2mtex can't handle chords before or after triplets, so:
\def\userKl#1{\zcharnote q{\gfont G7}}
\def\userLu#1{\zcharnote q{\gfont C}}
\def\userMu#1{\zcharnote q{\gfont Dm}}
\def\userNu#1{\zcharnote q{\gfont A7}}
\def\userOu#1{\zcharnote q{$\,\,$\gfont G}}
\def\userPu#1{\zcharnote t{D.C. al Fine}}
"C"c2B2A2| A2B2c2|(3KBcB A4-| A6 | B2A2G2 | G2A2B2 |(3LABA G4-|G6| \
"A7"A2G2F2| E2F2G2|(3MGAG F4-| F6 |"D7"c2B2A2 |1 \ %first repeat:
  A2B2c2|"Fm"d6-|"G7"d G^FGAB \  %  ^F = F sharp. Now the 2nd repeat:
:|2 OB2c2d2|"C"c6-| c6 \
\zcharnote u{Fine}
|| \
% this was the refrain, now the verse:
"Am"E2F2G2| A2G2F2 | (3FGF E4-|E6 | E2F2G2| A2G2F2 |(3NFGF E4-|E6|
"D7"d3 A"G7"Bd |"C7"c3 G"F7"Ac |"Bb7"_B3 F"Eb7"GB |\% _B = B flat (twice!)
"Ab7"_A4 _G2| "Cm"G^FGABc| "Cdim"_e4 A2| "Fm"d6-|"G7"d GP^FGAB |
